X:1
T:Title
L:1/8
Q:1/4=100
M:4/4
K:Eb
V:1 treble nm="Grand Piano"
V:1
 EEEE F2 E2 | GGGG A2 G2 | BBBc B2 A2 | G2 F2 E4 | EEEE F2 E2 | GGGG A2 G2 | BBBc B2 A2 | %7
w: ????~????~????? * * * * *|||||||
 G2 F2 E4 | BBcc AA B2 | GGAA FF G2 | EEFE DF B2 | BGAF BA G2- |[M:6/8] G3- G2 B, | E2 F G2 A | %14
w: |||||||
 B3- B2 B | c2 d e2 c | B3- B2 B | c2 d e2 c | B2 A G2 G | B2 A G2 F | E3- E2 B | c2 c B2 G | %22
w: ||||||||
 A2 A G2 B | c2 c B2 G | A2 A G2 B | B2 B A2 G | F3 A2 A | A2 A G2 F | E3- E2 B, | E2 F G2 A | %30
w: ||||||||
 B3- B2 B | c2 d e2 c | B3- B2 B | c2 d e2 c | B2 A G2 G | B2 A G2 F | E3- E2 B | c2 c B2 G | %38
w: ||||||||
 A2 A G2 B | c2 c B2 G | A2 A G2 B | B2 B A2 G | F3 A2 B | B2 B B2 B |[M:4/4] B6 z B, | %45
w: |||||||
 EG B2 G2 A2 | c2 B2 G2 A2 | c2 B2 E2 E2 | G2 F4- FB, | DF A2 F2 A2 | c2 B2 E2 G2 | B2 A2 D2 E2 | %52
w: |||||||
 F2 E4 z B, | EG B2 G2 A2 | c2 B2 G2 A2 | c2 B2 E2 E2 | G2 F4- FB, | DF A2 F2 A2 | c2 B2 E2 G2 | %59
w: |||||||
 B2 A2 D2 E2 | F2 E4 z B, | EG B4- BC | EA c4- cd | cB e6- | e2 EE EE F2 | E2 GG GG A2 | %66
w: |||||||
 G2 BB Bc B2 |[M:8/4] A2 G2 F2 E2- E2 z2 z4 |] %68
w: ||

